storage/app/icons/phosphoricons/thin/behance-logo-thin.svg

<svg xmlns="http://www.w3.org/2000/svg" fill="currentColor" viewBox="0 0 256 256"><path d="M108.16 122.74A34 34 0 0 0 90 60H32a4 4 0 0 0-4 4v128a4 4 0 0 0 4 4h62a38 38 0 0 0 14.16-73.26M36 68h54a26 26 0 0 1 0 52H36Zm58 120H36v-60h58a30 30 0 0 1 0 60m70-108a4 4 0 0 1 4-4h64a4 4 0 0 1 0 8h-64a4 4 0 0 1-4-4m36 28a44 44 0 1 0 35.2 70.41 4 4 0 0 0-6.4-4.81 36 36 0 0 1-64.58-17.6H240a4 4 0 0 0 4-4 44.05 44.05 0 0 0-44-44m-35.78 40a36 36 0 0 1 71.56 0Z"/></svg>

<svg xmlns="http://www.w3.org/2000/svg" viewBox="0 0 256 256" fill="currentColor"><path d="M108.16,122.74A34,34,0,0,0,90,60H32a4,4,0,0,0-4,4V192a4,4,0,0,0,4,4H94a38,38,0,0,0,14.16-73.26ZM36,68H90a26,26,0,0,1,0,52H36ZM94,188H36V128H94a30,30,0,0,1,0,60ZM164,80a4,4,0,0,1,4-4h64a4,4,0,0,1,0,8H168A4,4,0,0,1,164,80Zm36,28a44,44,0,1,0,35.2,70.41,4,4,0,0,0-6.4-4.81A36,36,0,0,1,164.22,156H240a4,4,0,0,0,4-4A44.05,44.05,0,0,0,200,108Zm-35.78,40a36,36,0,0,1,71.56,0Z"/></svg>
